src/app/assets/icons/restart-alt.svg

<svg width="24" height="24" viewBox="0 0 24 24" fill="none" xmlns="http://www.w3.org/2000/svg">
<path d="M11.4201 6.62017L12.5112 7.71133L11.1289 9.09365L7.64658 5.61133L11.1289 2.12901L12.5112 3.51133L11.4201 4.60249L11.3987 4.62383H11.4289H11.5039C13.734 4.62383 15.6225 5.39756 17.1701 6.94517C18.7177 8.49277 19.4914 10.3812 19.4914 12.6113C19.4914 14.625 18.83 16.3845 17.507 17.8906C16.1871 19.3931 14.5238 20.2785 12.5164 20.5471V18.5717C13.9646 18.3032 15.1596 17.6107 16.101 16.4944C17.0445 15.3755 17.5164 14.0809 17.5164 12.6113C17.5164 10.9414 16.9318 9.52153 15.7627 8.35249C14.5937 7.18345 13.1739 6.59883 11.5039 6.59883H11.4289H11.3987L11.4201 6.62017ZM10.4914 18.5719V20.5472C8.48402 20.2952 6.82067 19.4181 5.5008 17.9156C4.17783 16.4096 3.51641 14.6417 3.51641 12.6113C3.51641 11.513 3.73273 10.4605 4.16539 9.45376C4.59645 8.45072 5.20918 7.57574 6.00363 6.82873L7.41073 8.23583C6.78098 8.80166 6.304 9.45852 5.97994 10.2064C5.65423 10.958 5.49141 11.7597 5.49141 12.6113C5.49141 14.0809 5.95908 15.3796 6.89429 16.5068C7.82736 17.6315 9.02658 18.3199 10.4914 18.5719Z" fill="currentColor" stroke="currentColor" stroke-width="0.025"/>
</svg>

<svg xmlns="http://www.w3.org/2000/svg" width="24" height="24" fill="none"><path fill="currentColor" stroke="currentColor" stroke-width=".025" d="m11.42 6.62 1.091 1.091-1.382 1.383L7.647 5.61l3.482-3.482 1.382 1.382-1.09 1.091-.022.022h.105q3.345 0 5.666 2.321t2.321 5.666q0 3.02-1.984 5.28-1.98 2.253-4.99 2.656v-1.975q2.172-.403 3.584-2.078 1.415-1.678 1.415-3.883 0-2.505-1.753-4.259Q14.008 6.6 11.503 6.6H11.4zm-.929 11.952v1.975q-3.01-.378-4.99-2.631-1.985-2.259-1.985-5.305 0-1.647.65-3.157a7.8 7.8 0 0 1 1.838-2.625L7.41 8.236a5.65 5.65 0 0 0-1.431 1.97 6 6 0 0 0-.489 2.405q0 2.205 1.403 3.896 1.4 1.686 3.597 2.065Z"/></svg>
